X: 29
T: Congress, The
C: Joe Mills
Z: Em G
S: https://thesession.org/tunes/208#setting54361
R: reel
M: 4/4
L: 1/8
K: Ador
|:eAAG A2Bd|eaaf gedg|eA~A2 eA~A2|BG~G2 GABd|
eAAG A2Bd|eaaf gedB|cBcd eged|cABG A2Bd:|
|:eaag a2ag|eaaf gedg|egdg egdg|eaaf gedg|
eaag a2ag|eaaf gedB|cBcd eged|cABG A2Bd:|

%-------------------- TUNE SEPARATOR --------------------%

